packages/icon/src/svg/help.icon.svg

<svg width="24" height="24" viewBox="0 0 24 24" fill="none" xmlns="http://www.w3.org/2000/svg">
<path fill-rule="evenodd" clip-rule="evenodd" d="M12 2C6.47998 2 2 6.48 2 12C2 17.52 6.47998 22 12 22C17.52 22 22 17.52 22 12C22 6.48 17.52 2 12 2ZM10.3494 10.4092H9.42065C9.41382 10.4092 9.40698 10.4091 9.40027 10.4087C9.17444 10.3974 9.00049 10.2052 9.01172 9.97943C9.0415 9.38367 9.16077 8.5069 9.71741 8.01321C10.3164 7.48193 10.3524 7.46825 10.5818 7.38097C10.6271 7.36372 10.6799 7.34361 10.7462 7.31607C11.1477 7.14912 11.5967 7.06564 12.093 7.06564C12.7338 7.06564 13.2686 7.15363 13.6971 7.32961C14.1259 7.50558 14.4711 7.72443 14.7328 7.98615C14.9944 8.24785 15.1816 8.52986 15.2946 8.83218C15.4073 9.13451 15.4637 9.41652 15.4637 9.67824C15.4637 10.1114 15.4073 10.4679 15.2946 10.7476C15.1816 11.0274 15.0419 11.2665 14.8749 11.4651C14.7079 11.6636 14.5229 11.8328 14.3198 11.9727C14.1168 12.1126 13.925 12.2525 13.7445 12.3923C13.5641 12.5322 13.4039 12.6924 13.264 12.8729C13.2511 12.8896 13.2382 12.9052 13.2256 12.9204L13.2238 12.9226L13.2214 12.9254C13.1249 13.0418 13.042 13.1416 13.012 13.5826C12.9961 13.8176 12.8008 14 12.5653 14L11.4709 14C11.4503 14 11.4298 13.9986 11.4093 13.9957C11.1675 13.9617 10.9989 13.738 11.033 13.4961C11.0944 13.0587 11.2297 12.8012 11.3302 12.6099C11.3547 12.5634 11.3771 12.5207 11.3959 12.4803C11.5177 12.2186 11.6599 11.9953 11.8224 11.8103C11.9847 11.6253 12.1562 11.4651 12.3367 11.3297C12.5172 11.1944 12.6842 11.059 12.8376 10.9236C12.991 10.7883 13.1151 10.6393 13.2098 10.4769C13.3046 10.3145 13.3474 10.1114 13.3385 9.86775C13.3385 9.45262 13.2369 9.1458 13.0338 8.94725C12.8308 8.74872 12.5488 8.64944 12.1879 8.64944C11.9442 8.64944 11.7344 8.69682 11.5583 8.79158C11.3824 8.88634 11.238 9.01268 11.1252 9.17061C11.0123 9.32854 10.929 9.51353 10.8748 9.72562C10.8522 9.814 10.8344 9.90512 10.8212 9.99899C10.7882 10.2342 10.5869 10.4092 10.3494 10.4092ZM11.5 15C11.2239 15 11 15.2239 11 15.5V16.5C11 16.7761 11.2239 17 11.5 17H12.5C12.7761 17 13 16.7761 13 16.5V15.5C13 15.2239 12.7761 15 12.5 15H11.5ZM4 12C4 16.41 7.58997 20 12 20C16.41 20 20 16.41 20 12C20 7.59 16.41 4 12 4C7.58997 4 4 7.59 4 12Z" fill="white"/>
</svg>

<svg aria-label="help icon" viewBox="0 0 24 24"><path fill-rule="evenodd" clip-rule="evenodd" d="M12 2C6.48 2 2 6.48 2 12s4.48 10 10 10 10-4.48 10-10S17.52 2 12 2zm-1.65 8.41h-.93l-.02-.001a.41.41 0 01-.388-.43c.03-.595.149-1.472.705-1.966.6-.531.635-.545.865-.632.045-.017.098-.037.164-.065.402-.167.85-.25 1.347-.25.64 0 1.176.088 1.604.264.429.176.774.394 1.036.656a2.432 2.432 0 01.73 1.692c0 .433-.056.79-.168 1.07a2.641 2.641 0 01-.975 1.225c-.203.14-.395.28-.575.42a2.695 2.695 0 00-.52.527l-.001.003-.003.002c-.096.117-.179.217-.209.658a.448.448 0 01-.447.417h-1.094a.442.442 0 01-.438-.504c.061-.437.197-.695.297-.886.025-.047.047-.09.066-.13.122-.261.264-.485.426-.67a3.39 3.39 0 01.515-.48 8.51 8.51 0 00.5-.406c.154-.136.278-.285.373-.447.095-.162.137-.366.128-.61 0-.414-.101-.721-.304-.92-.203-.198-.485-.298-.846-.298a1.31 1.31 0 00-.63.143c-.176.094-.32.22-.433.379a1.643 1.643 0 00-.25.555c-.023.088-.04.18-.054.273a.476.476 0 01-.472.41zM11.5 15a.5.5 0 00-.5.5v1a.5.5 0 00.5.5h1a.5.5 0 00.5-.5v-1a.5.5 0 00-.5-.5h-1zM4 12c0 4.41 3.59 8 8 8s8-3.59 8-8-3.59-8-8-8-8 3.59-8 8z"/></svg>
